X:54
T:Ed Yother's Jig #2
C:Ed Yother 12/2016
C:http://edyother.com
M:6/8
L:1/8
R:Jig
K:Dmix
|: dcA FGA | BAB AFD | dcA FGA | BAB cBc |
dcA FGA | BAB AFD | FEF GFG | AFD D3 :|
|: FEF GFG | AFD AFD | FEF GFG | AFD DFA |
FEF GFG | AFD AFD | BAB cBA | FGA D3 :|
|: dcA dcA | FAd fed | dcA dcA | FGA AFD |
dcA dcA | FAd fed | cAB cBA | FGA D3 :|
|: cAB cAd | cAd cAB | cAB cAd | cAF GAB |
cAB cAd | cAd cAB | cAd cAF | FGA D3 :|

